X:16101
T:Reed's Fortune
C:david@colourcountry.net
M:6/8
K:G
P:A
"G"DGB "C"cde "G"dcB "D"A2G |1,3 "Em" BcB "C"AGA "Em"BGE "C"EFG :|2 "Em"BcB "C"AGE "D"DAF "G"GFE :|4 "Em"BcB "C"AGE "D"DAF "G"GBd ||
P:B
"C"e2e "G"dBG "D"ABc "G"dBG |1,3 "D"ABc "G"dBG "C"EFG "G"DGB :|2,4 "G"BcB "Bm"AGA "Em"BGE "C"EFG :|
P:A'
(2:3:3DGB2 (2:3:3cde2 (2:3:3dcB2 A2G |1,3  BcB AGA BGE EFG :|2 BcB AGE DAF GFE :|4 BcB AGE DAF GBd ||

